src/pos-icons/arrow-horizontal-lock.svg

<svg height="24" viewBox="0 0 24 24" width="24" xmlns="http://www.w3.org/2000/svg"><path d="m14.8 7v-1.5c0-1.4-1.4-2.5-2.8-2.5s-2.8 1.1-2.8 2.5v1.5c-.6 0-1.2.6-1.2 1.2v3.5c0 .7.6 1.3 1.2 1.3h5.5c.7 0 1.3-.6 1.3-1.2v-3.5c0-.7-.6-1.3-1.2-1.3m-1.3 0h-3v-1.5c0-.8.7-1.3 1.5-1.3s1.5.5 1.5 1.3zm-7.5 10v3l-4-4 4-4v3h12v-3l4 4-4 4v-3z"/></svg>

<?xml version="1.0" encoding="UTF-8"?><!DOCTYPE svg PUBLIC "-//W3C//DTD SVG 1.1//EN" "http://www.w3.org/Graphics/SVG/1.1/DTD/svg11.dtd"><svg xmlns="http://www.w3.org/2000/svg" xmlns:xlink="http://www.w3.org/1999/xlink" version="1.1" id="mdi-arrow-horizontal-lock" width="24" height="24" viewBox="0 0 24 24"><path d="M14.8 7V5.5C14.8 4.1 13.4 3 12 3S9.2 4.1 9.2 5.5V7C8.6 7 8 7.6 8 8.2V11.7C8 12.4 8.6 13 9.2 13H14.7C15.4 13 16 12.4 16 11.8V8.3C16 7.6 15.4 7 14.8 7M13.5 7H10.5V5.5C10.5 4.7 11.2 4.2 12 4.2S13.5 4.7 13.5 5.5V7M6 17V20L2 16L6 12V15H18V12L22 16L18 20V17H6Z" /></svg>
